X:1
T:Title
T: Bourreé 
T:Georg Friedrich Haendel
T:watermusic
T:Transcription Ja'hé or make it ginger
C:Composer
%%score 1 2 3 4
L:1/8
Q:1/4=71
M:4/4
K:F
V:1 treble nm="Oboe" snm="Ob."
V:2 treble nm="Violin" snm="Vln."
V:3 alto nm="Viola" snm="Vla."
V:4 bass nm="Violoncello" snm="Vc."
V:1
"^Adagio" c2 | A2 d2 c2 f2 | e2 a2 g2 B2 | A2 f2 g2 fe | f2 c2 F2 GF | E2 A2 G2 c2 | =B2 e2 de f2 | %7
 ef g2 G2 =B2 | c6 :: g2 | e2 a2 g2 c2 | A2 d2 ^c2 f2 | e2 a2 g2 fe | fg a2 d2 ^f2 | ga b2 d2 g2 | %15
 ef g2 c2 B2 | AB c2 G2 F2 | [EA]F G2 [CF]2 c2 | A2 d2 c2 f2 | e2 a2 ga b2 | a2 gf ef g2 | %21
 f2 ed c2 B2 | AB c2 A2 GF | F6 z2 :| %24
V:2
 A2 | F2 F2 F2 A2 | G2 F2 c2 F2 | F2 A2 B2 AG | A6 C2 | E2 F2 G2 E2 | D2 c2 G2 d2 | c2 c2 G2 F2 | %8
 E2 F2 G2 :: E2 | G2 F2 c2 E2 | C2 F2 E2 d2 | d2 d2 d2 ^c2 | d2 F2 A2 d2 | d2 B2 BA G2 | %15
 G2 E2 EF G2 | A2 F2 D2 F2 | C6 E2 | F2 F2 F2 A2 | G2 F2 c2 E2 | F2 c2 GA B2 | A2 B2 G2 E2 | %22
 F2 F2 F2 E2 | F6 z2 :| %24
V:3
 F2 | C2 B,2 C2 C2 | C2 C2 C2 C2 | C2 D2 D2 C2 | C6 A,2 | G,2 F,2 C2 G2 | G2 G2 G2 _C2 | %7
 G2 G2 E2 D2 | C2 z4 :: C2 | C2 C2 C2 G2 | F2 A2 A2 A2 | B2 A2 B2 A2 | A2 A2 F2 A2 | G2 G2 G2 D2 | %15
 C2 C2 G2 C2 | C2 C2 B,2 F,2 | G,4 A,2 B,2 | C2 B,2 C2 C2 | C2 C2 C2 C2 | C2 C2 E2 E2 | %21
 F2 F2 G2 G2 | A2 C2 C2 B,2 | A,6 z2 :| %24
V:4
 F,2 | F,,2 B,,2 A,,2 F,,2 | C,2 F,2 E,2 C,2 | F,2 D,2 B,,2 C,2 | F,,6 F,,2 | C,2 F,2 E,2 C,2 | %6
 G,2 C2 =B,2 G,2 | C2 E,2 G,2 G,,2 | C,2 D,2 E,2 :: C,2 | C2 F,2 E,2 C,2 | F,2 D,2 A,2 D,2 | %12
 G,2 F,2 E,2 A,2 | D,2 D2 D2 C2 | B,2 G,2 G,A, B,2 | C2 C,2 C,D, E,2 | F,2 A,,2 B,,C, D,2 | %17
 C,2 B,,2 A,,2 G,,2 | F,,2 B,,2 A,,2 F,,2 | C,2 F,2 E,2 C,2 | F,2 A,2 C2 C,2 | D,2 B,2 E,2 C2 | %22
 F,2 A,,2 C,2 [C,,C,]2 | F,,6 z2 :| %24

